lib/images/icon_pages.svg

<svg width="100" height="62" viewBox="0 0 100 62" fill="none" xmlns="http://www.w3.org/2000/svg">
<path d="M14 15H69V48H18C15.7909 48 14 46.2091 14 44V15Z" fill="white"/>
<path d="M14 8C14 5.79086 15.7909 4 18 4H65C67.2091 4 69 5.79086 69 8V15H14V8Z" fill="#A6B1C9"/>
<path opacity="0.15" d="M14 15H17.6667V48C15.6416 48 14 46.3584 14 44.3333V15ZM14 7.66667C14 5.64162 15.6416 4 17.6667 4V15H14V7.66667Z" fill="#000064"/>
<path d="M69 15V8C69 5.79086 67.2091 4 65 4H18C15.7909 4 14 5.79086 14 8V15M69 15H14M69 15V48H18C15.7909 48 14 46.2091 14 44V15" stroke="#2E4369" stroke-width="2" stroke-linecap="round" stroke-linejoin="round"/>
<path d="M19.5833 10.5833C20.1356 10.5833 20.5833 10.1355 20.5833 9.58325C20.5833 9.03097 20.1356 8.58325 19.5833 8.58325C19.0311 8.58325 18.5833 9.03097 18.5833 9.58325C18.5833 10.1355 19.0311 10.5833 19.5833 10.5833Z" stroke="#2E4369" stroke-width="2" stroke-linecap="round" stroke-linejoin="round"/>
<path d="M26 10.5833C26.5523 10.5833 27 10.1355 27 9.58325C27 9.03097 26.5523 8.58325 26 8.58325C25.4477 8.58325 25 9.03097 25 9.58325C25 10.1355 25.4477 10.5833 26 10.5833Z" stroke="#2E4369" stroke-width="2" stroke-linecap="round" stroke-linejoin="round"/>
<path d="M32.4167 10.5833C32.9689 10.5833 33.4167 10.1355 33.4167 9.58325C33.4167 9.03097 32.9689 8.58325 32.4167 8.58325C31.8644 8.58325 31.4167 9.03097 31.4167 9.58325C31.4167 10.1355 31.8644 10.5833 32.4167 10.5833Z" stroke="#2E4369" stroke-width="2" stroke-linecap="round" stroke-linejoin="round"/>
<path d="M18 19H73V52H22C19.7909 52 18 50.2091 18 48V19Z" fill="white"/>
<path d="M18 12C18 9.79086 19.7909 8 22 8H69C71.2091 8 73 9.79086 73 12V19H18V12Z" fill="#A6B1C9"/>
<path opacity="0.15" d="M18 19H21.6667V52C19.6416 52 18 50.3584 18 48.3333V19ZM18 11.6667C18 9.64162 19.6416 8 21.6667 8V19H18V11.6667Z" fill="#000064"/>
<path d="M73 19V12C73 9.79086 71.2091 8 69 8H22C19.7909 8 18 9.79086 18 12V19M73 19H18M73 19V52H22C19.7909 52 18 50.2091 18 48V19" stroke="#2E4369" stroke-width="2" stroke-linecap="round" stroke-linejoin="round"/>
<path d="M23.5833 14.5833C24.1356 14.5833 24.5833 14.1355 24.5833 13.5833C24.5833 13.031 24.1356 12.5833 23.5833 12.5833C23.0311 12.5833 22.5833 13.031 22.5833 13.5833C22.5833 14.1355 23.0311 14.5833 23.5833 14.5833Z" stroke="#2E4369" stroke-width="2" stroke-linecap="round" stroke-linejoin="round"/>
<path d="M30 14.5833C30.5523 14.5833 31 14.1355 31 13.5833C31 13.031 30.5523 12.5833 30 12.5833C29.4477 12.5833 29 13.031 29 13.5833C29 14.1355 29.4477 14.5833 30 14.5833Z" stroke="#2E4369" stroke-width="2" stroke-linecap="round" stroke-linejoin="round"/>
<path d="M36.4167 14.5833C36.9689 14.5833 37.4167 14.1355 37.4167 13.5833C37.4167 13.031 36.9689 12.5833 36.4167 12.5833C35.8644 12.5833 35.4167 13.031 35.4167 13.5833C35.4167 14.1355 35.8644 14.5833 36.4167 14.5833Z" stroke="#2E4369" stroke-width="2" stroke-linecap="round" stroke-linejoin="round"/>
<path d="M22 23H77V56H26C23.7909 56 22 54.2091 22 52V23Z" fill="white"/>
<path d="M22 16C22 13.7909 23.7909 12 26 12H73C75.2091 12 77 13.7909 77 16V23H22V16Z" fill="#A6B1C9"/>
<path opacity="0.15" d="M22 23H25.6667V56C23.6416 56 22 54.3584 22 52.3333V23ZM22 15.6667C22 13.6416 23.6416 12 25.6667 12V23H22V15.6667Z" fill="#000064"/>
<path d="M77 23V16C77 13.7909 75.2091 12 73 12H26C23.7909 12 22 13.7909 22 16V23M77 23H22M77 23V56H26C23.7909 56 22 54.2091 22 52V23" stroke="#2E4369" stroke-width="2" stroke-linecap="round" stroke-linejoin="round"/>
<path d="M27.5833 18.5833C28.1356 18.5833 28.5833 18.1355 28.5833 17.5833C28.5833 17.031 28.1356 16.5833 27.5833 16.5833C27.0311 16.5833 26.5833 17.031 26.5833 17.5833C26.5833 18.1355 27.0311 18.5833 27.5833 18.5833Z" stroke="#2E4369" stroke-width="2" stroke-linecap="round" stroke-linejoin="round"/>
<path d="M34 18.5833C34.5523 18.5833 35 18.1355 35 17.5833C35 17.031 34.5523 16.5833 34 16.5833C33.4477 16.5833 33 17.031 33 17.5833C33 18.1355 33.4477 18.5833 34 18.5833Z" stroke="#2E4369" stroke-width="2" stroke-linecap="round" stroke-linejoin="round"/>
<path d="M40.4167 18.5833C40.9689 18.5833 41.4167 18.1355 41.4167 17.5833C41.4167 17.031 40.9689 16.5833 40.4167 16.5833C39.8644 16.5833 39.4167 17.031 39.4167 17.5833C39.4167 18.1355 39.8644 18.5833 40.4167 18.5833Z" stroke="#2E4369" stroke-width="2" stroke-linecap="round" stroke-linejoin="round"/>
<circle cx="74" cy="50" r="9" fill="#FF8B76" stroke="#2E4369" stroke-width="2"/>
<path d="M69.5 49.5L73 53L78.5 47.5" stroke="white" stroke-width="2" stroke-linecap="round" stroke-linejoin="round"/>
</svg>

<svg width="100" height="62" fill="none" xmlns="http://www.w3.org/2000/svg"><path d="M14 15h55v33H18a4 4 0 01-4-4V15z" fill="#fff"/><path d="M14 8a4 4 0 014-4h47a4 4 0 014 4v7H14V8z" fill="#A6B1C9"/><path opacity=".15" d="M14 15h3.667v33A3.667 3.667 0 0114 44.333V15zm0-7.333A3.667 3.667 0 0117.667 4v11H14V7.667z" fill="#000064"/><path d="M69 15V8a4 4 0 00-4-4H18a4 4 0 00-4 4v7m55 0H14m55 0v33H18a4 4 0 01-4-4V15" stroke="#2E4369" stroke-width="2" stroke-linecap="round" stroke-linejoin="round"/><path d="M19.583 10.583a1 1 0 100-2 1 1 0 000 2zm6.417 0a1 1 0 100-2 1 1 0 000 2zm6.417 0a1 1 0 100-2 1 1 0 000 2z" stroke="#2E4369" stroke-width="2" stroke-linecap="round" stroke-linejoin="round"/><path d="M18 19h55v33H22a4 4 0 01-4-4V19z" fill="#fff"/><path d="M18 12a4 4 0 014-4h47a4 4 0 014 4v7H18v-7z" fill="#A6B1C9"/><path opacity=".15" d="M18 19h3.667v33A3.667 3.667 0 0118 48.333V19zm0-7.333A3.667 3.667 0 0121.667 8v11H18v-7.333z" fill="#000064"/><path d="M73 19v-7a4 4 0 00-4-4H22a4 4 0 00-4 4v7m55 0H18m55 0v33H22a4 4 0 01-4-4V19" stroke="#2E4369" stroke-width="2" stroke-linecap="round" stroke-linejoin="round"/><path d="M23.583 14.583a1 1 0 100-2 1 1 0 000 2zm6.417 0a1 1 0 100-2 1 1 0 000 2zm6.417 0a1 1 0 100-2 1 1 0 000 2z" stroke="#2E4369" stroke-width="2" stroke-linecap="round" stroke-linejoin="round"/><path d="M22 23h55v33H26a4 4 0 01-4-4V23z" fill="#fff"/><path d="M22 16a4 4 0 014-4h47a4 4 0 014 4v7H22v-7z" fill="#A6B1C9"/><path opacity=".15" d="M22 23h3.667v33A3.667 3.667 0 0122 52.333V23zm0-7.333A3.667 3.667 0 0125.667 12v11H22v-7.333z" fill="#000064"/><path d="M77 23v-7a4 4 0 00-4-4H26a4 4 0 00-4 4v7m55 0H22m55 0v33H26a4 4 0 01-4-4V23" stroke="#2E4369" stroke-width="2" stroke-linecap="round" stroke-linejoin="round"/><path d="M27.583 18.583a1 1 0 100-2 1 1 0 000 2zm6.417 0a1 1 0 100-2 1 1 0 000 2zm6.417 0a1 1 0 100-2 1 1 0 000 2z" stroke="#2E4369" stroke-width="2" stroke-linecap="round" stroke-linejoin="round"/><circle cx="74" cy="50" r="9" fill="#FF8B76" stroke="#2E4369" stroke-width="2"/><path d="M69.5 49.5L73 53l5.5-5.5" stroke="#fff" stroke-width="2" stroke-linecap="round" stroke-linejoin="round"/></svg>
